assets/svgs/leistungen/termin-kalender.svg

<?xml version="1.0" encoding="UTF-8"?>
<svg viewBox="0 0 176.57 116.94" xmlns="http://www.w3.org/2000/svg">
<g transform="translate(0)" data-name="Gruppe 50">
<path transform="translate(-705.56 -411.35)" d="M875.233,489.611a14.374,14.374,0,0,1-4.572,3.235h0c-.161.077-.323.151-.486.221h0l0,0,0,0h0v0h0l0,0s0,0,0,0l0,0,0,0h0s0,0,0,0h0a28.928,28.928,0,0,1-3.531,1.263,48.981,48.981,0,0,1-21.755,1.136l-.414-.074V478.6c.137-.058.275-.116.414-.172q1.357-.562,2.747-1.033,2-.683,4.055-1.172a43.914,43.914,0,0,1,13.669-1.105q1.251.093,2.5.269a18.824,18.824,0,0,1,5.16,1.4h0c.234.11.464.224.691.346a7.759,7.759,0,0,1,3.357,3.289,6.33,6.33,0,0,1,.563,1.654v0c.041.2.07.4.093.6A9.2,9.2,0,0,1,875.233,489.611Z" fill="#f2f2f2" data-name="Pfad 892"/>
<path transform="translate(-705.56 -438.48)" d="M877.687,509.811a.285.285,0,0,1-.062.008q-5.318.233-10.622.691H867l-.041,0q-5.445.472-10.868,1.182c-.153.021-.3.041-.455.06q-3.75.5-7.486,1.109-1.649.27-3.291.563c-.139.025-.275.048-.414.075v-.627c.139-.027.277-.05.414-.074q5.47-.969,10.978-1.691,1.385-.186,2.773-.352,4.011-.484,8.035-.836l.588-.05q5.151-.438,10.316-.664a.2.2,0,0,1,.05,0C877.925,509.242,878,509.739,877.687,509.811Z" fill="#fff" data-name="Pfad 893"/>
<path transform="translate(-748.21 -447.66)" d="m912.97 528.77a16.948 16.948 0 0 1-11.892-4.94 16.108 16.108 0 0 1-2.315-2.912c-0.211-0.338-0.7 0.035-0.494 0.37a17.564 17.564 0 0 0 10.924 7.682 16.724 16.724 0 0 0 3.857 0.413c0.396-4e-3 0.314-0.616-0.08-0.613z" fill="#fff" data-name="Pfad 894"/>
<path transform="translate(-705.56 -416.07)" d="M851.656,480.95a.35.35,0,0,1-.259.234,13.5,13.5,0,0,0-2.914,1.138,14.159,14.159,0,0,0-3.628,2.742c-.056.056-.11.112-.161.17-.087.091-.17.184-.253.279v-.9c.133-.141.271-.279.414-.412a14.882,14.882,0,0,1,2.747-2.078Q849.6,481.438,851.656,480.95Z" fill="#fff" data-name="Pfad 895"/>
<path transform="translate(-790.51 -417.5)" d="M958.3,482.769a14.365,14.365,0,0,0-6.71,5.916.31.31,0,0,0,.164.4.316.316,0,0,0,.4-.164,13.671,13.671,0,0,1,6.374-5.585.309.309,0,0,0-.232-.572Z" fill="#fff" data-name="Pfad 896"/>
<path transform="translate(-705.56 -310.68)" d="M881.816,358.374a14.348,14.348,0,0,1-2.546,4.988l0,0c-.106.141-.215.284-.329.42v0a28.823,28.823,0,0,1-2.569,2.771,48.314,48.314,0,0,1-11.046,7.892,46.266,46.266,0,0,1-20.47,5.388c-.054,0-.108,0-.161,0-.085,0-.17,0-.253,0v-9.407c.135-.257.273-.513.414-.768a45.438,45.438,0,0,1,6.63-9.07c.062-.068.126-.137.19-.2q1.453-1.534,3.047-2.92a43.633,43.633,0,0,1,13.927-8.248,18.742,18.742,0,0,1,5.218-1.159c.259-.014.515-.021.774-.019a7.771,7.771,0,0,1,4.5,1.354,6.418,6.418,0,0,1,1.267,1.2c.128.159.246.323.36.491v0A9.188,9.188,0,0,1,881.816,358.374Z" fill="#f2f2f2" data-name="Pfad 897"/>
<path transform="translate(-705.56 -320.39)" d="M880.768,360.8v0a.305.305,0,0,1-.05.035q-4.595,2.673-9.074,5.541l-.01.006a.353.353,0,0,1-.037.023q-4.6,2.949-9.078,6.1l-.377.265q-3.089,2.183-6.114,4.458-5.713,4.3-11.175,8.925c-.139.116-.275.234-.414.352V385.7c.137-.118.275-.236.414-.352q2.093-1.766,4.222-3.483c.424-.341.851-.683,1.277-1.02q5.681-4.523,11.618-8.709h0q1.167-.823,2.339-1.631,3.328-2.291,6.731-4.473l.495-.317q4.356-2.782,8.826-5.381a.31.31,0,0,1,.046-.023C880.719,360.188,881.011,360.6,880.768,360.8Z" fill="#fff" data-name="Pfad 898"/>
<path transform="translate(-773.37 -367.12)" d="M946.6,419.611a16.948,16.948,0,0,1-12.826,1.149,16.111,16.111,0,0,1-3.4-1.5c-.343-.2-.607.357-.266.557a17.564,17.564,0,0,0,13.242,1.729,16.727,16.727,0,0,0,3.608-1.426c.349-.187-.008-.69-.355-.505Z" fill="#fff" data-name="Pfad 899"/>
<path transform="translate(-724.64 -346.8)" d="M868.722,406.864a14.181,14.181,0,0,1-.2-3.284,14.967,14.967,0,0,1,2.231-7.068q1.455-1.533,3.047-2.921a.353.353,0,0,1-.121.328,13.546,13.546,0,0,0-2.051,2.361,14.306,14.306,0,0,0-2.294,10.533.251.251,0,0,1-.065.237.336.336,0,0,1-.55-.185Z" fill="#fff" data-name="Pfad 900"/>
<path transform="translate(-807.02 -309.11)" d="m975.57 346.19a14.365 14.365 0 0 0-3.194 8.357 0.31 0.31 0 0 0 0.333 0.282 0.316 0.316 0 0 0 0.282-0.333 13.67 13.67 0 0 1 3.05-7.907c0.251-0.308-0.22-0.708-0.471-0.399z" fill="#fff" data-name="Pfad 901"/>
<path transform="translate(-705.56 -290.76)" d="M852.681,334.63v0c-.014.178-.031.354-.05.53v0a29.268,29.268,0,0,1-.673,3.717c-.145.6-.3,1.2-.474,1.792-.021.077-.044.153-.066.228v0a47.484,47.484,0,0,1-1.809,5.1,49.448,49.448,0,0,1-4.754,8.738c-.135.2-.273.4-.414.6V322.934c.139-.008.275-.008.414,0q.1,0,.2.006a6.277,6.277,0,0,1,1.714.333c.195.064.383.137.569.217a9.187,9.187,0,0,1,4.8,5.57A14.379,14.379,0,0,1,852.681,334.63Z" fill="#f2f2f2" data-name="Pfad 902"/>
<path transform="translate(-705.56 -291.56)" d="M847.337,324.289a.22.22,0,0,1-.023.058q-1.257,2.443-2.459,4.911c-.139.284-.277.569-.414.853V328.7q.2-.422.414-.844.928-1.881,1.888-3.746a.273.273,0,0,1,.025-.041C846.958,323.8,847.43,323.984,847.337,324.289Z" fill="#fff" data-name="Pfad 903"/>
<path transform="translate(-705.56 -335.33)" d="M852.747,379.533c-.037.066-.074.132-.116.2a16.521,16.521,0,0,1-2.157,2.947,17.782,17.782,0,0,1-5.619,4.092c-.137.066-.275.128-.414.186v-.673c.139-.062.277-.126.414-.193a16.737,16.737,0,0,0,7.321-6.793.34.34,0,0,1,.505-.1.238.238,0,0,1,.066.331Z" fill="#fff" data-name="Pfad 904"/>
<path transform="translate(-173.44 -167.5)" d="m312.74 174.33v15.73h-0.414v-0.168h-138.47v0.168h-0.414v-15.73a6.837 6.837 0 0 1 6.83-6.83h125.63a6.837 6.837 0 0 1 6.835 6.83z" fill="#049ce7" data-name="Pfad 905"/>
<path transform="translate(-173.44 -167.5)" d="M305.9,167.5H180.271a6.837,6.837,0,0,0-6.83,6.83v89.827a6.837,6.837,0,0,0,6.83,6.83H305.9a6.837,6.837,0,0,0,6.83-6.83V174.33A6.837,6.837,0,0,0,305.9,167.5Zm6.416,96.657a6.424,6.424,0,0,1-6.416,6.416H180.271a6.424,6.424,0,0,1-6.416-6.416V174.33a6.424,6.424,0,0,1,6.416-6.416H305.9a6.424,6.424,0,0,1,6.416,6.416Z" fill="#3f3d56" data-name="Pfad 906"/>
<circle transform="translate(24.009 7.141)" cx="4.139" cy="4.139" r="4.139" fill="#fff" data-name="Ellipse 181"/>
<circle transform="translate(107.01 7.141)" cx="4.139" cy="4.139" r="4.139" fill="#fff" data-name="Ellipse 182"/>
<path transform="translate(-217.69 -312.82)" d="m257.8 370.26h-24.627a3.939 3.939 0 0 1-3.935-3.935v-11.639a3.939 3.939 0 0 1 3.935-3.935h24.627a3.939 3.939 0 0 1 3.935 3.935v11.639a3.939 3.939 0 0 1-3.935 3.935z" fill="#049ce7" data-name="Pfad 907"/>
<path transform="translate(-378.2 -312.82)" d="m460.2 370.26h-24.629a3.939 3.939 0 0 1-3.935-3.935v-11.639a3.939 3.939 0 0 1 3.935-3.935h24.629a3.939 3.939 0 0 1 3.935 3.935v11.639a3.939 3.939 0 0 1-3.935 3.935z" fill="#049ce7" data-name="Pfad 908"/>
<path transform="translate(-377.74 -427.12)" d="m459.74 514.63h-24.625a4.059 4.059 0 0 1-4.054-4.054v-11.639a4.059 4.059 0 0 1 4.054-4.054h24.625a4.059 4.059 0 0 1 4.054 4.054v11.639a4.059 4.059 0 0 1-4.054 4.054z" fill="#f2f2f2" data-name="Pfad 909"/>
<path transform="translate(-216.92 -427.12)" d="m256.95 514.63h-24.625a4.059 4.059 0 0 1-4.054-4.054v-11.639a4.059 4.059 0 0 1 4.054-4.054h24.625a4.059 4.059 0 0 1 4.054 4.054v11.639a4.059 4.059 0 0 1-4.054 4.054z" fill="#f2f2f2" data-name="Pfad 910"/>
<path transform="translate(-538.25 -427.12)" d="m662.14 514.63h-24.625a4.059 4.059 0 0 1-4.054-4.054v-11.639a4.059 4.059 0 0 1 4.054-4.054h24.625a4.059 4.059 0 0 1 4.054 4.054v11.639a4.059 4.059 0 0 1-4.054 4.054z" fill="#f2f2f2" data-name="Pfad 911"/>
<path transform="translate(-538.25 -311.99)" d="m662.14 369.45h-24.625a4.059 4.059 0 0 1-4.054-4.054v-11.639a4.059 4.059 0 0 1 4.054-4.054h24.625a4.059 4.059 0 0 1 4.054 4.054v11.639a4.059 4.059 0 0 1-4.054 4.054z" fill="#f2f2f2" data-name="Pfad 912"/>
<circle transform="translate(21.118 41.004)" cx="6.677" cy="6.677" r="6.677" fill="#fff" data-name="Ellipse 183"/>
<path transform="translate(-268.72 -340.49)" d="M295.856,390.723a.692.692,0,0,1-.417-.138l-.007-.006-1.569-1.2a.7.7,0,0,1,.848-1.107l1.016.779,2.4-3.133a.7.7,0,0,1,.977-.129l-.015.02.015-.02a.7.7,0,0,1,.129.977l-2.825,3.685A.7.7,0,0,1,295.856,390.723Z" fill="#049ce7" data-name="Pfad 913"/>
<circle transform="translate(63.129 40.908)" cx="6.677" cy="6.677" r="6.677" fill="#fff" data-name="Ellipse 184"/>
<path transform="translate(-429.69 -340.13)" d="M498.831,390.26a.692.692,0,0,1-.417-.138l-.007-.006-1.569-1.2a.7.7,0,0,1,.848-1.107l1.016.779,2.4-3.133a.7.7,0,0,1,.977-.129l-.015.02.015-.02a.7.7,0,0,1,.129.977l-2.825,3.685a.7.7,0,0,1-.555.272Z" fill="#049ce7" data-name="Pfad 914"/>
<path transform="translate(-580.43 -381.34)" d="m695.37 460.44a2.223 2.223 0 0 0-0.452-3.379l-3.728-19.905-4.534 1.681 5.09 19.038a2.236 2.236 0 0 0 3.623 2.566z" fill="#a0616a" data-name="Pfad 915"/>
<path transform="translate(-457.21 -346.04)" d="M535.97,394.758a2.363,2.363,0,0,1,0,.372l8.815,6.785,2.5-1.027,2.042,3.57-4.249,2.247a1.794,1.794,0,0,1-2.127-.337l-8.811-9.084a2.354,2.354,0,1,1,1.825-2.526Z" fill="#a0616a" data-name="Pfad 916"/>
<path transform="translate(-366.33 -408.85)" d="m465.68 523.28h-2.537l-1.207-7.718h3.745z" fill="#a0616a" data-name="Pfad 917"/>
<path transform="translate(-525.25 -602.75)" d="m625.25 719.63h-8.182v-0.1a3.184 3.184 0 0 1 3.185-3.185h5z" fill="#2f2e41" data-name="Pfad 918"/>
<path transform="translate(-402.81 -408.85)" d="m511.68 523.28h-2.537l-1.207-7.718h3.745z" fill="#a0616a" data-name="Pfad 919"/>
<path transform="translate(-561.73 -602.75)" d="m671.25 719.63h-8.182v-0.1a3.184 3.184 0 0 1 3.185-3.185h5z" fill="#2f2e41" data-name="Pfad 920"/>
<path transform="translate(-530.35 -478.08)" d="M626.643,590.976a.929.929,0,0,1-.926-.843l-2.211-29.74.1-.008,15.217-1.251,0,.108,1.21,30.808a.931.931,0,0,1-.931.966h-2.984a.926.926,0,0,1-.921-.79l-4.052-24.888a.1.1,0,0,0-.206.015l-.184,24.573a.932.932,0,0,1-.882.923l-3.189.124Z" fill="#2f2e41" data-name="Pfad 921"/>
<circle transform="translate(93.803 34.565)" cx="5.084" cy="5.084" r="5.084" fill="#a0616a" data-name="Ellipse 185"/>
<path transform="translate(-524.84 -347.77)" d="M624.71,431.988a25.053,25.053,0,0,1-6.575-.9.934.934,0,0,1-.67-.97c.684-10.285.845-18.267-.594-23.789a9.274,9.274,0,0,1,.764-6.8,8.952,8.952,0,0,1,7.936-4.7h0q.232,0,.469.017a9.356,9.356,0,0,1,8.547,9.923l-.99,24.872a.919.919,0,0,1-.583.837A23.645,23.645,0,0,1,624.71,431.988Z" fill="#3f3d56" data-name="Pfad 922"/>
<path transform="translate(-513.65 -359.87)" d="m606.52 420.34-3.808-4.666a1.192 1.192 0 0 1 0.313-1.778l5.158-3.074a3.312 3.312 0 0 1 4.173 5.144l-4.031 4.424a1.192 1.192 0 0 1-1.8-0.05z" fill="#3f3d56" data-name="Pfad 923"/>
<path transform="translate(-564.87 -354)" d="M669.719,413.876a1.191,1.191,0,0,1-.655-.746l-1.714-5.734a3.312,3.312,0,0,1,5.991-2.826l3.315,5.006a1.192,1.192,0,0,1-.489,1.738l-5.455,2.553a1.191,1.191,0,0,1-.993.008Z" fill="#3f3d56" data-name="Pfad 924"/>
<path transform="translate(-525.17 -296.32)" d="M626.566,340.141l-3.768-.862c-.389-.089-.856-.259-.91-.654-.073-.531.692-.9.621-1.432-.068-.514-.764-.581-1.26-.733a1.886,1.886,0,0,1-1.174-2.347,1.732,1.732,0,0,1-2.46.208,2.178,2.178,0,0,1-.412-2.554,2.957,2.957,0,0,1,2.22-1.5,4.681,4.681,0,0,1,2.7.5c.055-.586.787-.824,1.376-.829a5.885,5.885,0,0,1,5.514,4.025c.723,2.329.239,4.882-1.783,6.244Z" fill="#2f2e41" data-name="Pfad 925"/>
<path transform="translate(-404.44 -613.97)" d="M543.793,730.914H464.936a.207.207,0,0,1,0-.414h78.857a.207.207,0,0,1,0,.414Z" fill="#3f3d56" data-name="Pfad 926"/>
</g>
</svg>

<svg xmlns="http://www.w3.org/2000/svg" width="176.574" height="116.941" viewBox="0 0 176.574 116.941">
  <g id="Gruppe_50" data-name="Gruppe 50" transform="translate(0)">
    <path id="Pfad_892" data-name="Pfad 892" d="M875.233,489.611a14.374,14.374,0,0,1-4.572,3.235h0c-.161.077-.323.151-.486.221h0l0,0,0,0h0v0h0l0,0s0,0,0,0l0,0,0,0h0s0,0,0,0h0a28.928,28.928,0,0,1-3.531,1.263,48.981,48.981,0,0,1-21.755,1.136l-.414-.074V478.6c.137-.058.275-.116.414-.172q1.357-.562,2.747-1.033,2-.683,4.055-1.172a43.914,43.914,0,0,1,13.669-1.105q1.251.093,2.5.269a18.824,18.824,0,0,1,5.16,1.4h0c.234.11.464.224.691.346a7.759,7.759,0,0,1,3.357,3.289,6.33,6.33,0,0,1,.563,1.654v0c.041.2.07.4.093.6A9.2,9.2,0,0,1,875.233,489.611Z" transform="translate(-705.561 -411.352)" fill="#f2f2f2"/>
    <path id="Pfad_893" data-name="Pfad 893" d="M877.687,509.811a.285.285,0,0,1-.062.008q-5.318.233-10.622.691H867l-.041,0q-5.445.472-10.868,1.182c-.153.021-.3.041-.455.06q-3.75.5-7.486,1.109-1.649.27-3.291.563c-.139.025-.275.048-.414.075v-.627c.139-.027.277-.05.414-.074q5.47-.969,10.978-1.691,1.385-.186,2.773-.352,4.011-.484,8.035-.836l.588-.05q5.151-.438,10.316-.664a.2.2,0,0,1,.05,0C877.925,509.242,878,509.739,877.687,509.811Z" transform="translate(-705.561 -438.484)" fill="#fff"/>
    <path id="Pfad_894" data-name="Pfad 894" d="M912.974,528.766a16.948,16.948,0,0,1-11.892-4.94,16.108,16.108,0,0,1-2.315-2.912c-.211-.338-.7.035-.494.37a17.564,17.564,0,0,0,10.924,7.682,16.724,16.724,0,0,0,3.857.413C913.45,529.375,913.368,528.763,912.974,528.766Z" transform="translate(-748.211 -447.66)" fill="#fff"/>
    <path id="Pfad_895" data-name="Pfad 895" d="M851.656,480.95a.35.35,0,0,1-.259.234,13.5,13.5,0,0,0-2.914,1.138,14.159,14.159,0,0,0-3.628,2.742c-.056.056-.11.112-.161.17-.087.091-.17.184-.253.279v-.9c.133-.141.271-.279.414-.412a14.882,14.882,0,0,1,2.747-2.078Q849.6,481.438,851.656,480.95Z" transform="translate(-705.561 -416.074)" fill="#fff"/>
    <path id="Pfad_896" data-name="Pfad 896" d="M958.3,482.769a14.365,14.365,0,0,0-6.71,5.916.31.31,0,0,0,.164.4.316.316,0,0,0,.4-.164,13.671,13.671,0,0,1,6.374-5.585.309.309,0,0,0-.232-.572Z" transform="translate(-790.512 -417.495)" fill="#fff"/>
    <path id="Pfad_897" data-name="Pfad 897" d="M881.816,358.374a14.348,14.348,0,0,1-2.546,4.988l0,0c-.106.141-.215.284-.329.42v0a28.823,28.823,0,0,1-2.569,2.771,48.314,48.314,0,0,1-11.046,7.892,46.266,46.266,0,0,1-20.47,5.388c-.054,0-.108,0-.161,0-.085,0-.17,0-.253,0v-9.407c.135-.257.273-.513.414-.768a45.438,45.438,0,0,1,6.63-9.07c.062-.068.126-.137.19-.2q1.453-1.534,3.047-2.92a43.633,43.633,0,0,1,13.927-8.248,18.742,18.742,0,0,1,5.218-1.159c.259-.014.515-.021.774-.019a7.771,7.771,0,0,1,4.5,1.354,6.418,6.418,0,0,1,1.267,1.2c.128.159.246.323.36.491v0A9.188,9.188,0,0,1,881.816,358.374Z" transform="translate(-705.56 -310.679)" fill="#f2f2f2"/>
    <path id="Pfad_898" data-name="Pfad 898" d="M880.768,360.8v0a.305.305,0,0,1-.05.035q-4.595,2.673-9.074,5.541l-.01.006a.353.353,0,0,1-.037.023q-4.6,2.949-9.078,6.1l-.377.265q-3.089,2.183-6.114,4.458-5.713,4.3-11.175,8.925c-.139.116-.275.234-.414.352V385.7c.137-.118.275-.236.414-.352q2.093-1.766,4.222-3.483c.424-.341.851-.683,1.277-1.02q5.681-4.523,11.618-8.709h0q1.167-.823,2.339-1.631,3.328-2.291,6.731-4.473l.495-.317q4.356-2.782,8.826-5.381a.31.31,0,0,1,.046-.023C880.719,360.188,881.011,360.6,880.768,360.8Z" transform="translate(-705.561 -320.387)" fill="#fff"/>
    <path id="Pfad_899" data-name="Pfad 899" d="M946.6,419.611a16.948,16.948,0,0,1-12.826,1.149,16.111,16.111,0,0,1-3.4-1.5c-.343-.2-.607.357-.266.557a17.564,17.564,0,0,0,13.242,1.729,16.727,16.727,0,0,0,3.608-1.426c.349-.187-.008-.69-.355-.505Z" transform="translate(-773.37 -367.115)" fill="#fff"/>
    <path id="Pfad_900" data-name="Pfad 900" d="M868.722,406.864a14.181,14.181,0,0,1-.2-3.284,14.967,14.967,0,0,1,2.231-7.068q1.455-1.533,3.047-2.921a.353.353,0,0,1-.121.328,13.546,13.546,0,0,0-2.051,2.361,14.306,14.306,0,0,0-2.294,10.533.251.251,0,0,1-.065.237.336.336,0,0,1-.55-.185Z" transform="translate(-724.642 -346.795)" fill="#fff"/>
    <path id="Pfad_901" data-name="Pfad 901" d="M975.571,346.186a14.365,14.365,0,0,0-3.194,8.357.31.31,0,0,0,.333.282.316.316,0,0,0,.282-.333,13.67,13.67,0,0,1,3.05-7.907C976.293,346.277,975.822,345.877,975.571,346.186Z" transform="translate(-807.017 -309.114)" fill="#fff"/>
    <path id="Pfad_902" data-name="Pfad 902" d="M852.681,334.63v0c-.014.178-.031.354-.05.53v0a29.268,29.268,0,0,1-.673,3.717c-.145.6-.3,1.2-.474,1.792-.021.077-.044.153-.066.228v0a47.484,47.484,0,0,1-1.809,5.1,49.448,49.448,0,0,1-4.754,8.738c-.135.2-.273.4-.414.6V322.934c.139-.008.275-.008.414,0q.1,0,.2.006a6.277,6.277,0,0,1,1.714.333c.195.064.383.137.569.217a9.187,9.187,0,0,1,4.8,5.57A14.379,14.379,0,0,1,852.681,334.63Z" transform="translate(-705.561 -290.757)" fill="#f2f2f2"/>
    <path id="Pfad_903" data-name="Pfad 903" d="M847.337,324.289a.22.22,0,0,1-.023.058q-1.257,2.443-2.459,4.911c-.139.284-.277.569-.414.853V328.7q.2-.422.414-.844.928-1.881,1.888-3.746a.273.273,0,0,1,.025-.041C846.958,323.8,847.43,323.984,847.337,324.289Z" transform="translate(-705.562 -291.56)" fill="#fff"/>
    <path id="Pfad_904" data-name="Pfad 904" d="M852.747,379.533c-.037.066-.074.132-.116.2a16.521,16.521,0,0,1-2.157,2.947,17.782,17.782,0,0,1-5.619,4.092c-.137.066-.275.128-.414.186v-.673c.139-.062.277-.126.414-.193a16.737,16.737,0,0,0,7.321-6.793.34.34,0,0,1,.505-.1.238.238,0,0,1,.066.331Z" transform="translate(-705.561 -335.327)" fill="#fff"/>
    <path id="Pfad_905" data-name="Pfad 905" d="M312.735,174.33v15.73h-.414v-.168H173.855v.168h-.414V174.33a6.837,6.837,0,0,1,6.83-6.83H305.9A6.837,6.837,0,0,1,312.735,174.33Z" transform="translate(-173.441 -167.5)" fill="#049ce7"/>
    <path id="Pfad_906" data-name="Pfad 906" d="M305.9,167.5H180.271a6.837,6.837,0,0,0-6.83,6.83v89.827a6.837,6.837,0,0,0,6.83,6.83H305.9a6.837,6.837,0,0,0,6.83-6.83V174.33A6.837,6.837,0,0,0,305.9,167.5Zm6.416,96.657a6.424,6.424,0,0,1-6.416,6.416H180.271a6.424,6.424,0,0,1-6.416-6.416V174.33a6.424,6.424,0,0,1,6.416-6.416H305.9a6.424,6.424,0,0,1,6.416,6.416Z" transform="translate(-173.441 -167.5)" fill="#3f3d56"/>
    <circle id="Ellipse_181" data-name="Ellipse 181" cx="4.139" cy="4.139" r="4.139" transform="translate(24.009 7.141)" fill="#fff"/>
    <circle id="Ellipse_182" data-name="Ellipse 182" cx="4.139" cy="4.139" r="4.139" transform="translate(107.006 7.141)" fill="#fff"/>
    <path id="Pfad_907" data-name="Pfad 907" d="M257.8,370.255H233.173a3.939,3.939,0,0,1-3.935-3.935V354.681a3.939,3.939,0,0,1,3.935-3.935H257.8a3.939,3.939,0,0,1,3.935,3.935V366.32A3.939,3.939,0,0,1,257.8,370.255Z" transform="translate(-217.69 -312.819)" fill="#049ce7"/>
    <path id="Pfad_908" data-name="Pfad 908" d="M460.2,370.255H435.571a3.939,3.939,0,0,1-3.935-3.935V354.681a3.939,3.939,0,0,1,3.935-3.935H460.2a3.939,3.939,0,0,1,3.935,3.935V366.32a3.939,3.939,0,0,1-3.935,3.935Z" transform="translate(-378.197 -312.819)" fill="#049ce7"/>
    <path id="Pfad_909" data-name="Pfad 909" d="M459.74,514.632H435.115a4.059,4.059,0,0,1-4.054-4.054V498.939a4.059,4.059,0,0,1,4.054-4.054H459.74a4.059,4.059,0,0,1,4.054,4.054v11.639a4.059,4.059,0,0,1-4.054,4.054Z" transform="translate(-377.74 -427.125)" fill="#f2f2f2"/>
    <path id="Pfad_910" data-name="Pfad 910" d="M256.951,514.632H232.326a4.059,4.059,0,0,1-4.054-4.054V498.939a4.059,4.059,0,0,1,4.054-4.054h24.625a4.059,4.059,0,0,1,4.054,4.054v11.639A4.059,4.059,0,0,1,256.951,514.632Z" transform="translate(-216.924 -427.125)" fill="#f2f2f2"/>
    <path id="Pfad_911" data-name="Pfad 911" d="M662.139,514.632H637.514a4.059,4.059,0,0,1-4.054-4.054V498.939a4.059,4.059,0,0,1,4.054-4.054h24.625a4.059,4.059,0,0,1,4.054,4.054v11.639A4.059,4.059,0,0,1,662.139,514.632Z" transform="translate(-538.248 -427.125)" fill="#f2f2f2"/>
    <path id="Pfad_912" data-name="Pfad 912" d="M662.139,369.454H637.514a4.059,4.059,0,0,1-4.054-4.054V353.761a4.059,4.059,0,0,1,4.054-4.054h24.625a4.059,4.059,0,0,1,4.054,4.054V365.4A4.059,4.059,0,0,1,662.139,369.454Z" transform="translate(-538.248 -311.994)" fill="#f2f2f2"/>
    <circle id="Ellipse_183" data-name="Ellipse 183" cx="6.677" cy="6.677" r="6.677" transform="translate(21.118 41.004)" fill="#fff"/>
    <path id="Pfad_913" data-name="Pfad 913" d="M295.856,390.723a.692.692,0,0,1-.417-.138l-.007-.006-1.569-1.2a.7.7,0,0,1,.848-1.107l1.016.779,2.4-3.133a.7.7,0,0,1,.977-.129l-.015.02.015-.02a.7.7,0,0,1,.129.977l-2.825,3.685A.7.7,0,0,1,295.856,390.723Z" transform="translate(-268.722 -340.494)" fill="#049ce7"/>
    <circle id="Ellipse_184" data-name="Ellipse 184" cx="6.677" cy="6.677" r="6.677" transform="translate(63.129 40.908)" fill="#fff"/>
    <path id="Pfad_914" data-name="Pfad 914" d="M498.831,390.26a.692.692,0,0,1-.417-.138l-.007-.006-1.569-1.2a.7.7,0,0,1,.848-1.107l1.016.779,2.4-3.133a.7.7,0,0,1,.977-.129l-.015.02.015-.02a.7.7,0,0,1,.129.977l-2.825,3.685a.7.7,0,0,1-.555.272Z" transform="translate(-429.686 -340.127)" fill="#049ce7"/>
    <path id="Pfad_915" data-name="Pfad 915" d="M695.369,460.435a2.223,2.223,0,0,0-.452-3.379l-3.728-19.905-4.534,1.681,5.09,19.038a2.236,2.236,0,0,0,3.623,2.566Z" transform="translate(-580.433 -381.339)" fill="#a0616a"/>
    <path id="Pfad_916" data-name="Pfad 916" d="M535.97,394.758a2.363,2.363,0,0,1,0,.372l8.815,6.785,2.5-1.027,2.042,3.57-4.249,2.247a1.794,1.794,0,0,1-2.127-.337l-8.811-9.084a2.354,2.354,0,1,1,1.825-2.526Z" transform="translate(-457.21 -346.036)" fill="#a0616a"/>
    <path id="Pfad_917" data-name="Pfad 917" d="M465.681,523.279h-2.537l-1.207-7.718h3.745Z" transform="translate(-366.327 -408.853)" fill="#a0616a"/>
    <path id="Pfad_918" data-name="Pfad 918" d="M625.247,719.634h-8.182v-.1a3.184,3.184,0,0,1,3.185-3.185h5Z" transform="translate(-525.247 -602.748)" fill="#2f2e41"/>
    <path id="Pfad_919" data-name="Pfad 919" d="M511.681,523.279h-2.537l-1.207-7.718h3.745Z" transform="translate(-402.806 -408.853)" fill="#a0616a"/>
    <path id="Pfad_920" data-name="Pfad 920" d="M671.247,719.634h-8.182v-.1a3.184,3.184,0,0,1,3.185-3.185h5Z" transform="translate(-561.726 -602.748)" fill="#2f2e41"/>
    <path id="Pfad_921" data-name="Pfad 921" d="M626.643,590.976a.929.929,0,0,1-.926-.843l-2.211-29.74.1-.008,15.217-1.251,0,.108,1.21,30.808a.931.931,0,0,1-.931.966h-2.984a.926.926,0,0,1-.921-.79l-4.052-24.888a.1.1,0,0,0-.206.015l-.184,24.573a.932.932,0,0,1-.882.923l-3.189.124Z" transform="translate(-530.354 -478.076)" fill="#2f2e41"/>
    <circle id="Ellipse_185" data-name="Ellipse 185" cx="5.084" cy="5.084" r="5.084" transform="translate(93.803 34.565)" fill="#a0616a"/>
    <path id="Pfad_922" data-name="Pfad 922" d="M624.71,431.988a25.053,25.053,0,0,1-6.575-.9.934.934,0,0,1-.67-.97c.684-10.285.845-18.267-.594-23.789a9.274,9.274,0,0,1,.764-6.8,8.952,8.952,0,0,1,7.936-4.7h0q.232,0,.469.017a9.356,9.356,0,0,1,8.547,9.923l-.99,24.872a.919.919,0,0,1-.583.837A23.645,23.645,0,0,1,624.71,431.988Z" transform="translate(-524.839 -347.773)" fill="#3f3d56"/>
    <path id="Pfad_923" data-name="Pfad 923" d="M606.517,420.338l-3.808-4.666a1.192,1.192,0,0,1,.313-1.778l5.158-3.074a3.312,3.312,0,0,1,4.173,5.144l-4.031,4.424a1.192,1.192,0,0,1-1.8-.05Z" transform="translate(-513.649 -359.872)" fill="#3f3d56"/>
    <path id="Pfad_924" data-name="Pfad 924" d="M669.719,413.876a1.191,1.191,0,0,1-.655-.746l-1.714-5.734a3.312,3.312,0,0,1,5.991-2.826l3.315,5.006a1.192,1.192,0,0,1-.489,1.738l-5.455,2.553a1.191,1.191,0,0,1-.993.008Z" transform="translate(-564.872 -353.996)" fill="#3f3d56"/>
    <path id="Pfad_925" data-name="Pfad 925" d="M626.566,340.141l-3.768-.862c-.389-.089-.856-.259-.91-.654-.073-.531.692-.9.621-1.432-.068-.514-.764-.581-1.26-.733a1.886,1.886,0,0,1-1.174-2.347,1.732,1.732,0,0,1-2.46.208,2.178,2.178,0,0,1-.412-2.554,2.957,2.957,0,0,1,2.22-1.5,4.681,4.681,0,0,1,2.7.5c.055-.586.787-.824,1.376-.829a5.885,5.885,0,0,1,5.514,4.025c.723,2.329.239,4.882-1.783,6.244Z" transform="translate(-525.168 -296.32)" fill="#2f2e41"/>
    <path id="Pfad_926" data-name="Pfad 926" d="M543.793,730.914H464.936a.207.207,0,0,1,0-.414h78.857a.207.207,0,0,1,0,.414Z" transform="translate(-404.44 -613.973)" fill="#3f3d56"/>
  </g>
</svg>
